svgs/1F975.svg

<svg xmlns="http://www.w3.org/2000/svg" xmlns:xlink="http://www.w3.org/1999/xlink" preserveAspectRatio="none" viewBox="0 0 72 72"><defs><linearGradient id="a" x1="36" x2="36" y1="40.987" y2="12.812" gradientUnits="userSpaceOnUse" spreadMethod="pad"><stop offset="0%" stop-color="#FCC21B"/><stop offset="100%" stop-color="#ED6C30"/></linearGradient><path id="b" fill="url(#a)" d="M36 5.6q-22.2 0-30.95 20.5Q.25 37.35.25 52.45q0 5.8 10.45 9.9 10.5 4.1 25.3 4.1t25.25-4.1q10.45-4.1 10.45-9.9 0-15.1-4.8-26.35Q58.2 5.6 36 5.6z"/><g id="c"><path fill="#ED6C30" d="M39.7 39.3h-1.75q-1.05-.05-1.75-.05h-.35q-.7 0-1.75.05h-1.75q-8.3.6-9.55 11.05.1 2.65 2.7 2.7 5.25-.55 10.5-.55t10.55.55q2.6-.05 2.65-2.7Q48 39.9 39.7 39.3z"/><path fill="#2F2F2F" d="M17.6 27.25q-.25 3.2.85 4.95 1.15 1.95 3.4 2.2 2.25.3 4.05-.85 1.8-1.2 2.35-3.5t-1.75-7.3q-4.05 3.05-8.9 4.5m26.2 2.8q.55 2.3 2.35 3.5 1.8 1.15 4.05.85 2.25-.25 3.4-2.2 1.1-1.75.8-4.95-4.8-1.45-8.85-4.5-2.3 5-1.75 7.3z"/></g><path id="d" fill="#40C0E7" d="M99.65 85.4q2.75.25 4.35-2.05 1.3-2 1.3-4.8.05-5.3-1.8-10.8-1.6-4.9-2.55-5-1.05-.1-3.7 4.5-3 5.2-3.4 9.8-.25 3.55 1.3 5.85t4.5 2.5z"/><path id="e" fill="#40C0E7" d="M99.65 85.4q2.75.25 4.35-2.05 1.3-2 1.3-4.8.05-5.3-1.8-10.8-1.6-4.9-2.55-5-1.05-.1-3.7 4.5-3 5.2-3.4 9.8-.25 3.55 1.3 5.85t4.5 2.5z"/><path id="f" fill="#40C0E7" d="M99.65 85.4q2.75.25 4.35-2.05 1.3-2 1.3-4.8.05-5.3-1.8-10.8-1.6-4.9-2.55-5-1.05-.1-3.7 4.5-3 5.2-3.4 9.8-.25 3.55 1.3 5.85t4.5 2.5z"/></defs><use xlink:href="#b"/><use xlink:href="#c"/><use transform="matrix(-.50262 0 0 .50262 115.35 4)" xlink:href="#d"/><use transform="matrix(-.5625 0 0 .5625 115.7 11.5)" xlink:href="#e"/><use transform="matrix(-.44302 0 0 .44302 104.5 -3.9)" xlink:href="#f"/></svg>

<svg xmlns="http://www.w3.org/2000/svg" version="1.1" xmlns:xlink="http://www.w3.org/1999/xlink" preserveAspectRatio="none" x="0px" y="0px" width="72px" height="72px" viewBox="0 0 72 72">
<defs>
<linearGradient id="Gradient_1" gradientUnits="userSpaceOnUse" x1="36" y1="40.9875" x2="36" y2="12.812499999999998" spreadMethod="pad">
<stop  offset="0%" stop-color="#FCC21B"/>

<stop  offset="100%" stop-color="#ED6C30"/>
</linearGradient>

<g id="Layer2_0_FILL">
<path fill="url(#Gradient_1)" stroke="none" d="
M 36 5.6
Q 13.8 5.6 5.05 26.1 0.25 37.35 0.25 52.45 0.25 58.25 10.7 62.35 21.2 66.45 36 66.45 50.8 66.45 61.25 62.35 71.7 58.25 71.7 52.45 71.7 37.35 66.9 26.1 58.2 5.6 36 5.6 Z"/>
</g>

<g id="Layer1_0_FILL">
<path fill="#ED6C30" stroke="none" d="
M 39.7 39.3
L 37.95 39.3
Q 36.9 39.25 36.2 39.25 36.15 39.25 36 39.25 35.9 39.25 35.85 39.25 35.15 39.25 34.1 39.3
L 32.35 39.3
Q 24.05 39.9 22.8 50.35 22.9 53 25.5 53.05 30.75 52.5 36 52.5 41.25 52.5 46.55 53.05 49.15 53 49.2 50.35 48 39.9 39.7 39.3 Z"/>

<path fill="#2F2F2F" stroke="none" d="
M 17.6 27.25
Q 17.35 30.45 18.45 32.2 19.6 34.15 21.85 34.4 24.1 34.7 25.9 33.55 27.7 32.35 28.25 30.05 28.8 27.75 26.5 22.75 22.45 25.8 17.6 27.25
M 43.8 30.05
Q 44.35 32.35 46.15 33.55 47.95 34.7 50.2 34.4 52.45 34.15 53.6 32.2 54.7 30.45 54.4 27.25 49.6 25.8 45.55 22.75 43.25 27.75 43.8 30.05 Z"/>
</g>

<g id="Layer0_0_FILL">
<path fill="#40C0E7" stroke="none" d="
M 99.65 85.4
Q 102.4 85.65 104 83.35 105.3 81.35 105.3 78.55 105.35 73.25 103.5 67.75 101.9 62.85 100.95 62.75 99.9 62.65 97.25 67.25 94.25 72.45 93.85 77.05 93.6 80.6 95.15 82.9 96.7 85.2 99.65 85.4 Z"/>
</g>

<g id="Layer0_1_FILL">
<path fill="#40C0E7" stroke="none" d="
M 99.65 85.4
Q 102.4 85.65 104 83.35 105.3 81.35 105.3 78.55 105.35 73.25 103.5 67.75 101.9 62.85 100.95 62.75 99.9 62.65 97.25 67.25 94.25 72.45 93.85 77.05 93.6 80.6 95.15 82.9 96.7 85.2 99.65 85.4 Z"/>
</g>

<g id="Layer0_2_FILL">
<path fill="#40C0E7" stroke="none" d="
M 99.65 85.4
Q 102.4 85.65 104 83.35 105.3 81.35 105.3 78.55 105.35 73.25 103.5 67.75 101.9 62.85 100.95 62.75 99.9 62.65 97.25 67.25 94.25 72.45 93.85 77.05 93.6 80.6 95.15 82.9 96.7 85.2 99.65 85.4 Z"/>
</g>
</defs>

<g id="_____1">
<g transform="matrix( 1, 0, 0, 1, 0,0) ">
<use xlink:href="#Layer2_0_FILL"/>
</g>
</g>

<g id="Camada_2">
<g transform="matrix( 1, 0, 0, 1, 0,0) ">
<use xlink:href="#Layer1_0_FILL"/>
</g>
</g>

<g id="Camada_3">
<g transform="matrix( -0.50262451171875, 0, 0, 0.50262451171875, 115.35,4) ">
<use xlink:href="#Layer0_0_FILL"/>
</g>

<g transform="matrix( -0.5625, 0, 0, 0.5625, 115.7,11.5) ">
<use xlink:href="#Layer0_1_FILL"/>
</g>

<g transform="matrix( -0.443023681640625, 0, 0, 0.443023681640625, 104.5,-3.9) ">
<use xlink:href="#Layer0_2_FILL"/>
</g>
</g>
</svg>
